X: 17838
T: Horizon, The
R: hornpipe
M: 4/4
K: Dmajor
agfe defa|edcB A2 (3ABA|dcBA GABd|ABAF E2 DE|
FDEF GEFG|AFGA BGAB|defa edce|1 d2 dc defg:|2 d2 dc dddf||
ecef ecea|fdfa fdfa|gege ^g2 (3ggg|(3aae cB ABcA|
agfe defa|edcB A2 (3ABA|defa edce|1 d2 dc dddf:|2 d2 dc defg||

